X:1
T:Allerdreifeiertagslied
T:Satz: Ludwig Erk
T:A: Johannes Daniel Falk, 1816 B: Originaltext
T:Allerdreifeiertagslied
T:Sizilianische Volksweise
T:CPDL - Creative Commons Attribution Non Commercial 3.0
T:CPDL - Creative Commons Attribution Non Commercial 3.0
C:Ludwig Erk
Z:Johannes Daniel Falk
Z:CPDL - Creative Commons Attribution Non Commercial 3.0
%%score [ ( 1 2 ) ( 3 4 5 ) ]
L:1/8
Q:1/4=80
M:4/4
K:Eb
V:1 treble nm="Sopran\nAlt"
V:2 treble 
V:3 bass nm="Tenor\nBass"
V:4 bass 
V:5 bass 
V:1
!mf!"^Mäßig langsam und getragen" B4 c4 | B3 A (G2 !breath!A2) |!p! B4 c4 | B3 A (G2 !breath!A2) | %4
w: A:1.\-3.~O du|fröh- li- che, _|o du|se- li- ge, _|
w: ||||
w: ||||
!<(! B4 B4 | c4 d2!<)! e2 |!>(! d4 (c3 B) | B6!>)! z2 ::!p! (F3 G) F2 G2 | (A3 B) !breath!A4 | %10
w: gna- den-|brin- gen- de|1.~Weih- nachts _|zeit!|1.~Welt _ ging ver-|lo- * ren,|
w: ||2.~Os- ter- *|zeit!|2,~Welt _ lag in|Ban- * den,|
w: ||3.~Pfings- ten- *|zeit!|3.~Christ, _ un- ser|Meis- * ter,|
 (G3 A) G2"^cresc." A2 | (B3 c) !breath!B4 |"^poco forte" (e2 d2) (c2 _B2) | %13
w: Christ _ ist ge-|bo- * ren:|1.\-3.~Freu- * e, _|
w: Christ _ ist er-|stan- * den:||
w: hei- * ligt die|Geis- * ter:||
 e2"^dim." c2 !breath!B2 A2 | G4 (F3 E) | E6 z2 :| %16
w: freu- e dich, o|Chris- ten- *|heit!|
w: |||
w: |||
V:2
 E4 E4 | E3 D (E2 F2) | G4 (A2 G2) | F3 F (E2 F2) | G4 F4 | F4 F2 G2 | F4 (E3 D) | D6 x2 :: %8
 (D3 E) D2 E2 | D4 D4 | E4 E2 F2 | E4 E4 | (G2 F2) (E2 F2) | B2 A2 G2 F2 | E4 (D3 E) | B,6 x2 :| %16
V:3
!mf! G,4 A,4 | G,3 B, !breath!B,4 |!p! E4 C4 | D3 D !breath!E4 | B,4"^cresc." B,4 | =A,4 B,2 B,2 | %6
 B,4"^dim." =A,4 | B,6 z2 ::!p! B,4 B,2 B,2 | !^!B,4 !breath!B,4 | (B,3 C) B,2"^cresc." A,2 | %11
 (G,3 A,) !breath!G,4 |"^poco forte" (C2 =B,2) (C2 D2) | E2"^dim." E2 !breath!E2 C2 | %14
 B,4 (A,3 G,) | G,6 z2 :| %16
V:4
 E,4 A,4 | E,3 F, E,4 | E,4 A,4 | B,3 B, E,4 | E,4 D,4 | F,4 B,2 E,2 | F,4 F,,4 | B,,6 x2 :: %8
w: B:~~O sanc-|tis- si- ma,|o pi-|is- si- ma,|dul- cis|vir- go Ma-|ri- *|a!|
 B,,4 A,2 G,2 | F,4 B,,4 | E,4 E,2 E,2 | E,4 E,4 | (C,2 G,2) A,4 | G,2 A,2 E,2 A,,2 | B,,4 B,,4 | %15
w: Ma- ter a-|ma- ta,|in- te- me-|ra- ta,|o- * ra,|o- * ra pro|no- *|
 E,6 x2 :| %16
w: bis!|
V:5
 x8 | x8 | x8 | x8 | x8 | x8 | x4 F,4 | x8 :: x8 | x8 | x8 | x8 | x8 | x8 | x8 | x8 :| %16

